X: 23
T: Rolling Waves, The
Z: ConorW
S: https://thesession.org/tunes/88#setting48202
R: jig
M: 6/8
L: 1/8
K: Gmaj
F2 d cAd|cAd cAG|F2 d cAF|GA/G/F GFE|
F2 d cAd|cAd cAF|BGG AGF|E2 F G2 A||
BGG AGF|DED AGF|BGG AGF|E2 F G2 A|
BGG AGF|DED AGF|E2 d cAF|GA/G/F GFE||

